!!!COM: Schiørring, Niels
!!!CDT: 1743-1798
!!!OPR@@DA: Choral-Bog
!!!ONM: 83
!!!OTL@@DA: Dm Himmeriges Rige, ſaa ville vi tale
**kern	**fb	**kern	**kern	**kern	**kern	**kern	**kern	**kern
*part6	*part6	*part6	*part5	*part5	*part4	*part3	*part2	*part1
*staff8	*	*staff7	*staff6	*staff5	*staff4	*staff3	*staff2	*staff1
*clefF4	*	*clefC1	*clefF4	*clefC1	*clefF4	*clefC4	*clefC3	*clefC1
*mclefF4	*	*mclefG2	*mclefF4	*mclefG2	*mclefF4	*mclefGv2	*mclefG2	*mclefG2
*k[]	*	*k[]	*k[]	*k[]	*k[]	*k[]	*k[]	*k[]
*M4/4	*	*M4/4	*M4/4	*M4/4	*M4/4	*M4/4	*M4/4	*M4/4
*met(c)	*	*met(c)	*met(c)	*met(c)	*met(c)	*met(c)	*met(c)	*met(c)
*MM180	*	*MM180	*MM180	*MM180	*MM180	*MM180	*MM180	*MM180
*	*above	*	*	*	*	*	*	*
*	*slash	*	*	*	*	*	*	*
*	*	*	*^	*^	*	*	*	*
=1	=1	=1	=1	=1	=1	=1	=1	=1	=1	=1
2A	.	2a	2c	2A	2a	2e	2A	2c	2e	2a
=2	=2	=2	=2	=2	=2	=2	=2	=2	=2	=2
2F	.	2a	2c	2F	2a	2f	2F	2c	2f	2a
2D	.	2a	2d	2D	2a	2f	2D	2d	2f	2a
=3	=3	=3	=3	=3	=3	=3	=3	=3	=3	=3
2E	6	2cc	2c	2E	2cc	2g	2E	2c	2g	2cc
2F	.	2a	2c	2F	2a	[2f	2F	2c	[2f	2a
=4	=4	=4	=4	=4	=4	=4	=4	=4	=4	=4
4C	4	2g	4c	4C	2g	4f]	(4C	(4c	(4f]	2g
4C#X	-7 5	.	4B-X	4C#X	.	2e	4C#X)	4B-X)	2e)	.
2D	9	2f	2A	2D	2f	.	2D	2A	.	2f
.	8	.	.	.	.	8dL	.	.	(8dL	.
.	.	.	.	.	.	8cniJ	.	.	8cJ)	.
=5	=5	=5	=5	=5	=5	=5	=5	=5	=5	=5
2E	#	2e	2G#X	2E	2e	2Bni	2E	2G#X	2B	2e
2AA	.	2ccni	4ryy	2AA	2e	[2a	2AA	2e	(4c	2cc
.	.	.	4ryy	.	.	.	.	.	[4a)	.
=6	=6	=6	=6	=6	=6	=6	=6	=6	=6	=6
2E	4	2b	1ryy	2E	2e	4a]	2E	2e	(4a]	2b
.	3	.	.	.	.	2gni	.	.	2g)	.
2F	9	2a	.	2F	2c	.	2F	2c	.	2a
.	8	.	.	.	.	4f	.	.	4f	.
=7	=7	=7	=7	=7	=7	=7	=7	=7	=7	=7
2BB	6	2g	2ryy	2BB	2d	2d	2BB	2d	2d	2g
2C	.	2e	2G	2C	2e	2c	2C	2G	2c	2e
=8	=8	=8	=8	=8	=8	=8	=8	=8	=8	=8
2F	6	2f	2A	2F	2f	2d	2F	2A	2d	2f
2G	.	2d	2G	2G	2d	2B	2G	2G	2B	2d
=9	=9	=9	=9	=9	=9	=9	=9	=9	=9	=9
2C	.	2c	2E	2C	2c	2G	2C	2E	2c	2c
2A	#6\	2cc	2c	2A	2cc	2f#X	2A	2c	2f#X	2cc
=10	=10	=10	=10	=10	=10	=10	=10	=10	=10	=10
2G	.	2b	2d	2G	2b	1g	2G	2d	2g	2b
2E	6	2cc	2c	2E	2cc	.	2E	2e	2g	2cc
=11	=11	=11	=11	=11	=11	=11	=11	=11	=11	=11
2F#X	6	2dd	2A	2F#X	2dd	2a	2F#X	2d	2a	2dd
2G	.	2b	[2G	2G	2b	2d	2G	2d	[2g	2b
=12	=12	=12	=12	=12	=12	=12	=12	=12	=12	=12
2C	6 5	1a	2G]	2C	1a	2e	(2C	(2e	(2g]	1a
2D	#	.	2F#X	2D	.	2d	2D)	4d	2f#X)	.
.	.	.	.	.	.	.	.	4c)	.	.
=13	=13	=13	=13	=13	=13	=13	=13	=13	=13	=13
*	*	*	*	*	*	*^	*	*	*	*
2GG	.	2g	2G	2GG	2g	2d	2B\	2GG	2B	2g	2g
*	*	*	*	*	*	*v	*v	*	*	*	*
2GG	.	2g	2ryy	2GG	2B	[2d	2GG	2B	[2d	2g
=14	=14	=14	=14	=14	=14	=14	=14	=14	=14	=14
2C	9	2e	2G	2C	2e	2d]	2C	2G	2d]	2e
2AA	3	2e	2A	2AA	2e	2c	2AA	2A	2c	2e
=15	=15	=15	=15	=15	=15	=15	=15	=15	=15	=15
1BB	6	2g	1G	1BB	2g	1d	2BB	2G	2d	2g
.	5	2f	.	.	2f	.	2BB	2G	2d	2f
=16	=16	=16	=16	=16	=16	=16	=16	=16	=16	=16
2C	.	2e	1G	2C	2e	2.c	2C	2G	[2c	2e
2GG	4	2d	.	2GG	2d	.	2GG	2G	(4c]	2d
.	3	.	.	.	.	4B	.	.	4B)	.
=17	=17	=17	=17	=17	=17	=17	=17	=17	=17	=17
2C	.	2c	2E	2C	2c	2G	2C	2E	2c	2c
2E	6	2g	2c	2E	2g	2e	2E	2c	2c	2g
=18	=18	=18	=18	=18	=18	=18	=18	=18	=18	=18
2D	4 3	2g	2B	2D	2g	2f	2D	2B	2f	2g
2C	.	2g	2c	2C	2g	2e	2C	2c	2e	2g
=19	=19	=19	=19	=19	=19	=19	=19	=19	=19	=19
2F	.	2a	2c	2F	2a	1f	2F	2c	2f	2a
2D	6	2b	2d	2D	2b	.	2D	2d	2f	2b
=20	=20	=20	=20	=20	=20	=20	=20	=20	=20	=20
1E	6 4	2a	2c	1E	2a	1e	2E	2c	2e	2a
.	5 #	2g#X	2B	.	2g#X	.	2E	2B	2e	2g#X
=21	=21	=21	=21	=21	=21	=21	=21	=21	=21	=21
*	*	*	*	*	*	*^	*	*	*	*
2AA	.	2a	2A	2AA	2a	2e	2c\	2AA	2c	2e	2a
*	*	*	*	*	*	*v	*v	*	*	*	*
2A	.	2cc	2A	2A	2cc	2e	2A	2A	2e	2cc
=22	=22	=22	=22	=22	=22	=22	=22	=22	=22	=22
2D#X	6	2b	2F#X	2D#X	2b	2f#X	2D#X	2F#X	2f#X	2b
2BB	7 #	2a	2B	2BB	2a	2d#X	2BB	2B	2d#X	2a
=23	=23	=23	=23	=23	=23	=23	=23	=23	=23	=23
2E	.	2g	2B	2E	2g	1e	2E	2B	2e	2g
2C#X	6	2a	2A	2C#X	2a	.	2C#X	2A	2e	2a
=24	=24	=24	=24	=24	=24	=24	=24	=24	=24	=24
2D	.	1f	2A	2D	1f	2d	(2D	(2A	(2d	1f
2GG	7	.	2G	2GG	.	2B	2GG)	2G)	2B)	.
=25	=25	=25	=25	=25	=25	=25	=25	=25	=25	=25
2C	.	2e	2G	2C	2e	2c	2C	2G	2c	2e
2C	.	2cc	2ryy	2C	2e	2g	2C	2e	2g	2cc
=26	=26	=26	=26	=26	=26	=26	=26	=26	=26	=26
2GG	8	2b	1ryy	2GG	2d	4g	2GG	2d	(4g	2b
.	7	.	.	.	.	4f	.	.	4f)	.
2AA	.	2a	.	2AA	2c	2e	2AA	2c	2e	2a
=27	=27	=27	=27	=27	=27	=27	=27	=27	=27	=27
2BB	6	2g	1ryy	2BB	2d	2d	2BB	2d	2d	2g
2C	.	2e	.	2C	2G	2c	2C	2G	2c	2e
=28	=28	=28	=28	=28	=28	=28	=28	=28	=28	=28
*	*	*	*	*	*	*	*^	*	*	*
1FF	6	1d	1ryy	1FF	1A	1A	1F	1FF	1A	1A	1d
=29	=29	=29	=29	=29	=29	=29	=29	=29	=29	=29	=29
2EE	#	2e	2ryy	2EE	2G#X	2B	2E	2EE	2G#X	2B	2e
*	*	*	*v	*v	*	*	*v	*v	*	*	*
*	*	*	*	*v	*v	*	*	*	*
==	==	==	==	==	==	==	==	==
*-	*-	*-	*-	*-	*-	*-	*-	*-
!!!system-decoration: {(s1,s2,s3,s4)}{(s5,s6)}{(s7,s8)}
!!!RDF**kern: i = editorial accidental
!!!RDF**kern: > = above
!!!RDF**kern: < = below
!!!AGN: chorale
!!!EED: Derek Remeš
!!!EED2: Victor Phan
!!!END: 2023/11/28
!!!ENC: Wolfgang Drescher
!!!EEV: 2023/12/11
!!!title: @{ONM}. @{OTL}
!!!verovio: mnumInterval 1